!!!COM: Palestrina, Giovanni Perluigi da
!!!OPR: Missa Ut re mi fa sol la
!!!OTL: Kyrie
**kern	**kern	**kern	**kern	**kern	**kern
*Ibass	*Itenor	*Icalto	*Icalto	*Icant	*Icant
!Bassus	!Tenor	!Altus 2	!Altus 1	!Cantus 2	!Cantus 1
*clefF4	*clefGv2	*clefG2	*clefG2	*clefG2	*clefG2
*k[]	*k[]	*k[]	*k[]	*k[]	*k[]
*C:ion	*C:ion	*C:ion	*C:ion	*C:ion	*C:ion
*M4/2	*M4/2	*M4/2	*M4/2	*M4/2	*M4/2
=1	=1	=1	=1	=1	=1
0r	0c	0r	0r	0r	0r
=2	=2	=2	=2	=2	=2
0G	1d	0r	0r	0r	0r
.	1e	.	.	.	.
=3	=3	=3	=3	=3	=3
1A	1f	0r	0r	0r	0r
1B	1g	.	.	.	.
=4	=4	=4	=4	=4	=4
1c	0a	0r	0r	0r	0r
1d	.	.	.	.	.
=5	=5	=5	=5	=5	=5
1.e	0g	0c	0r	0r	0r
4d	.	.	.	.	.
4c	.	.	.	.	.
=6	=6	=6	=6	=6	=6
4B	1G	1d	0r	0r	0g
4A	.	.	.	.	.
2B	.	.	.	.	.
2c	2c	1e	.	.	.
2C	2e	.	.	.	.
=7	=7	=7	=7	=7	=7
2F	2d	1f	0r	0r	1a
2A	2c	.	.	.	.
1G	2B	1g	.	.	1b
.	[2d	.	.	.	.
=8	=8	=8	=8	=8	=8
2.F	4d]	1.a	0r	0r	1cc
.	4c	.	.	.	.
.	1c	.	.	.	.
4E	.	.	.	.	.
1D	.	.	.	.	1dd
.	2B	4g	.	.	.
.	.	4f	.	.	.
=9	=9	=9	=9	=9	=9
1C	2c	2e	1r	0g	2.ee
.	2.e	4c	.	.	.
.	.	4d	.	.	4ff
2r	.	4e	[1c	.	1gg
.	4d	4f	.	.	.
2C	4c	4g	.	.	.
.	4B	4e	.	.	.
=10	=10	=10	=10	=10	=10
2F	2A	2.f	2c]	0a	2cc
2D	1d	.	2d	.	2ff
.	.	4g	.	.	.
1A	.	1a	2e	.	2ee
.	2c	.	2f	.	2a
=11	=11	=11	=11	=11	=11
0G	2B	1d	0g	0b	2r
.	2G	.	.	.	2dd
.	1B	1r	.	.	2dd
.	.	.	.	.	2ee
=12	=12	=12	=12	=12	=12
1F	1A	2r	1a	0cc	1ff
.	.	1f	.	.	.
2C	1c	.	1g	.	2gg
2C	.	2e	.	.	[2cc
=13	=13	=13	=13	=13	=13
1G	1r	1d	2r	0dd	2cc]
.	.	.	1g	.	2b
1D	2r	1d	.	.	2.a
.	2d	.	2f	.	.
.	.	.	.	.	4b
=14	=14	=14	=14	=14	=14
0r	2A	1c	1e	0ee	4cc
.	.	.	.	.	4dd
.	2A	.	.	.	2.ee
.	1c	2r	1e	.	.
.	.	.	.	.	4dd
.	.	[2g	.	.	[2cc
=15	=15	=15	=15	=15	=15
1G	1G	2g]	1d	0r	2cc]
.	.	2d	.	.	2b
2D	2r	2d	1r	.	2.a
2D	2d	[2f	.	.	.
.	.	.	.	.	4g
=16	=16	=16	=16	=16	=16
1F	2A	2f]	1a	0r	4a
.	.	.	.	.	4b
.	2A	2.c	.	.	4cc
.	.	.	.	.	4dd
2C	1c	.	2e	.	4ee
.	.	4d	.	.	4ff
[2c	.	2e	2e	.	[2gg
=17	=17	=17	=17	=17	=17
2c]	2G	1d	1g	0r	4gg]
.	.	.	.	.	4ff
2B-	1d	.	.	.	4dd
.	.	.	.	.	4ee
1A	.	2r	[1a	.	2ff
.	2c#	2a	.	.	2ee
=18	=18	=18	=18	=18	=18
0D	1d	2.f	1a]	0r	2r
.	.	.	.	.	2dd
.	.	4d	.	.	.
.	2r	1f	1r	.	2a
.	2d	.	.	.	2a
=19	=19	=19	=19	=19	=19
0r	2A	1e	1a	0ee	1cc
.	2A	.	.	.	.
.	1c	2r	2e	.	2.g
.	.	[2g	2e	.	.
.	.	.	.	.	4a
=20	=20	=20	=20	=20	=20
1G	1G	2g]	1g	0dd	4b
.	.	.	.	.	4cc
.	.	2d	.	.	4dd
.	.	.	.	.	4ee
2D	2r	2d	[1a	.	[1ff
2D	2d	[2f	.	.	.
=21	=21	=21	=21	=21	=21
1F	2A	2f]	1a]	0cc	1ff]
.	2A	2.c	.	.	.
1C	1c	.	1g	.	1ee
.	.	4d	.	.	.
.	.	4e	.	.	.
.	.	4c	.	.	.
=22	=22	=22	=22	=22	=22
1r	0G	1d	2r	0b	1gg
.	.	.	1g	.	.
1G	.	2r	.	.	2dd
.	.	2g	2d	.	2dd
=23	=23	=23	=23	=23	=23
2D	2r	2f	2d	0a	1ff
2D	2d	2.a	1f	.	.
1F	2A	.	.	.	1cc
.	.	4g	.	.	.
.	2A	2f	[2c	.	.
=24	=24	=24	=24	=24	=24
1C	1c	2e	2c]	[0g	2.ee
.	.	2.g	2.e	.	.
.	.	.	.	.	4ff
2.E	[1G	.	.	.	2gg
.	.	4f	4f	.	.
.	.	2e	[2g	.	2g
4F	.	.	.	.	.
=25	=25	=25	=25	=25	=25
2G	0G]	2d	4g]	1g_	2b
.	.	.	4f	.	.
2C	.	1c	2e	.	2cc
1G	.	.	2d	1g_	1dd
.	.	2B	2g	.	.
=26	=26	=26	=26	=26	=26
0C	0G	0c	0e	0g]	0ee
=27	=27	=27	=27	=27	=27
0G	1r	0d	0b	[0g	0dd
.	[1G	.	.	.	.
=28	=28	=28	=28	=28	=28
1C	2G]	1c	1cc	0g]	1ee
.	2A	.	.	.	.
1G	2B	[1d	1b	.	2.dd
.	2G	.	.	.	.
.	.	.	.	.	4ee
=29	=29	=29	=29	=29	=29
0D	2.d	2d]	4a	[0a	4ff
.	.	.	4g	.	4dd
.	.	4c	4f	.	2.ff
.	4e	4B	4e	.	.
.	1f	2A	4d	.	.
.	.	.	4c#	.	4ee
.	.	[2a	2d	.	[2dd
=30	=30	=30	=30	=30	=30
1A	1e	4a]	2e	0a]	2dd]
.	.	4g	.	.	.
.	.	2e	2.a	.	2cc#
1D	1d	2f	.	.	[1dd
.	.	.	4g	.	.
.	.	2a	4f	.	.
.	.	.	4e	.	.
=31	=31	=31	=31	=31	=31
0G	2r	2.g	4d	[0b	1dd]
.	.	.	4c	.	.
.	2d	.	4B	.	.
.	.	4f	4A	.	.
.	1B	2e	2G	.	1r
.	.	2d	[2g	.	.
=32	=32	=32	=32	=32	=32
2.E	2.G	2e	4g]	0b]	0gg
.	.	.	4f	.	.
.	.	2.g	2e	.	.
4F	4A	.	.	.	.
1G	4B	.	1d	.	.
.	4c	4f	.	.	.
.	2d	2d	.	.	.
=33	=33	=33	=33	=33	=33
1C	2.c	2e	1g	[0cc	2.ee
.	.	2.g	.	.	.
.	4d	.	.	.	4ff
1c	4e	.	1e	.	2gg
.	4f	4f	.	.	.
.	2g	4e	.	.	[2cc
.	.	4d	.	.	.
=34	=34	=34	=34	=34	=34
2.A	2.c	2e	1a	0cc]	2cc]
.	.	2.c	.	.	2.ee
4B	4d	.	.	.	.
1c	1e	.	1g	.	.
.	.	4d	.	.	4dd
.	.	4e	.	.	[2cc
.	.	4c	.	.	.
=35	=35	=35	=35	=35	=35
0G	2.d	1g	2r	[0dd	2cc]
.	.	.	2.d	.	4b
.	4c	.	.	.	4a
.	2B	[1d	.	.	1b
.	.	.	4G	.	.
.	2G	.	[2g	.	.
=36	=36	=36	=36	=36	=36
0D	1A	1d]	2g]	0dd]	1.a
.	.	.	4f	.	.
.	.	.	4e	.	.
.	1d	1r	1f#	.	.
.	.	.	.	.	2b
=37	=37	=37	=37	=37	=37
1r	1c	2r	1g	[0ee	[0cc
.	.	1g	.	.	.
[1c	1g	.	2r	.	.
.	.	[2e	[2g	.	.
=38	=38	=38	=38	=38	=38
1c]	1e	2e]	2g]	0ee]	1cc]
.	.	2g	1e	.	.
1A	2c	1a	.	.	1r
.	[2e	.	2c	.	.
=39	=39	=39	=39	=39	=39
1c	2e]	2g	2.e	0r	0gg
.	4d	1cc	.	.	.
.	4c	.	4f	.	.
1G	2d	.	1g	.	.
.	[2e	2b	.	.	.
=40	=40	=40	=40	=40	=40
1A	4e]	1cc	1c	0r	1ee
.	4d	.	.	.	.
.	1c	.	.	.	.
1G	.	2r	1d	.	1gg
.	2B	[2g	.	.	.
=41	=41	=41	=41	=41	=41
0C	1c	2g]	2.e	[0ee	2.gg
.	.	1e	.	.	.
.	.	.	4f	.	4ff
.	1c	.	1g	.	4ee
.	.	.	.	.	4dd
.	.	2g	.	.	4cc
.	.	.	.	.	4b
=42	=42	=42	=42	=42	=42
0r	1A	1a	2.c	0ee]	0cc
.	.	.	4d	.	.
.	1c	[1g	2e	.	.
.	.	.	2c	.	.
=43	=43	=43	=43	=43	=43
0G	2.G	2g]	1d	[0dd	1b
.	.	4f	.	.	.
.	4A	4e	.	.	.
.	2B	2d	1g	.	2r
.	2G	[2g	.	.	[2dd
=44	=44	=44	=44	=44	=44
1D	0d	2g]	1a	0dd]	4dd]
.	.	.	.	.	4cc
.	.	2f#	.	.	2a
1G	.	1g	2d	.	1b
.	.	.	2g	.	.
=45	=45	=45	=45	=45	=45
1C	1g	2r	2.e	[0cc	[0ee
.	.	1g	.	.	.
.	.	.	4f	.	.
1c	[1e	.	1g	.	.
.	.	2e	.	.	.
=46	=46	=46	=46	=46	=46
1A	2e]	1a	2.c	0cc]	0ee]
.	2.c	.	.	.	.
.	.	.	4d	.	.
1c	.	[1g	2e	.	.
.	4d	.	.	.	.
.	4e	.	2c	.	.
.	4f	.	.	.	.
=47	=47	=47	=47	=47	=47
1G	2g	1g]	1d	[0b	0dd
.	4G	.	.	.	.
.	4A	.	.	.	.
1G	4B	1d	2r	.	.
.	4c	.	.	.	.
.	2d	.	[2g	.	.
=48	=48	=48	=48	=48	=48
1E	2.G	2e	4g]	0b]	0gg
.	.	.	4f	.	.
.	.	2.g	2e	.	.
.	4A	.	.	.	.
1G	2.B	.	2d	.	.
.	.	4f	.	.	.
.	.	4d	2G	.	.
.	4c	4e	.	.	.
=49	=49	=49	=49	=49	=49
1D	4d	2f	2A	[0a	1ff
.	4A	.	.	.	.
.	1d	2d	2.a	.	.
1A	.	2e	.	.	1ee
.	.	.	4g	.	.
.	2c#	[2A	2e	.	.
=50	=50	=50	=50	=50	=50
0D	1d	2A]	2f#	0a]	[0dd
.	.	2.d	1g	.	.
.	2r	.	.	.	.
.	.	4c	.	.	.
.	[2d	2A	2f#	.	.
=51	=51	=51	=51	=51	=51
0G	2d]	2.B	2g	[0g	1dd]
.	1B	.	4G	.	.
.	.	4c	4A	.	.
.	.	2d	4B	.	1b
.	.	.	4c	.	.
.	[2G	[2B	2d	.	.
=52	=52	=52	=52	=52	=52
1E	2G]	2B]	2G	0g]	1ee
.	1c	1G	2.g	.	.
1G	.	.	.	.	1dd
.	.	.	4f	.	.
.	2B	[2g	2d	.	.
=53	=53	=53	=53	=53	=53
0C	1c	4g]	2e	[0g	2.gg
.	.	4f	.	.	.
.	.	4e	2c	.	.
.	.	4d	.	.	4ff
.	1G	1c	1cc	.	1ee
=54	=54	=54	=54	=54	=54
0G	0G	0d	0b	0g]	0dd
=55	=55	=55	=55	=55	=55
0r	0r	0r	1c	0r	0r
.	.	.	2e	.	.
.	.	.	2f	.	.
=56	=56	=56	=56	=56	=56
1G	0r	0r	2.d	0r	0g
.	.	.	4c	.	.
2B	.	.	2d	.	.
2c	.	.	[2e	.	.
=57	=57	=57	=57	=57	=57
2.A	0r	1c	4e]	0r	0a
.	.	.	4d	.	.
.	.	.	4c	.	.
4B	.	.	4B	.	.
2c	.	2e	2A	.	.
2d	.	2f	2d	.	.
=58	=58	=58	=58	=58	=58
1G	2r	2.d	1B	0g	2b
.	2G	.	.	.	1dd
.	.	4c	.	.	.
1r	2B	2d	1r	.	.
.	2c	[2e	.	.	[2cc
=59	=59	=59	=59	=59	=59
0r	2.A	4e]	1c	0a	4cc]
.	.	4d	.	.	4dd
.	.	4c	.	.	1ee
.	4B	4B	.	.	.
.	2c	2A	2e	.	.
.	2d	2d	2f	.	[2dd
=60	=60	=60	=60	=60	=60
2r	1G	2.B	2.d	0b	4dd]
.	.	.	.	.	4cc
2G	.	.	.	.	4b
.	.	4c	4c	.	4a
2G	1r	1d	4B	.	2g
.	.	.	4G	.	.
2G	.	.	[2g	.	2dd
=61	=61	=61	=61	=61	=61
2.c	0r	2c	4g]	0cc	4ee
.	.	.	4f	.	4ff
.	.	2e	4e	.	1gg
4B	.	.	4d	.	.
4A	.	4a	1c	.	.
4G	.	4b	.	.	.
2A	.	[2cc	.	.	2ff#
=62	=62	=62	=62	=62	=62
1G	2r	2cc]	2r	0dd	1gg
.	2G	4b	1g	.	.
.	.	4a	.	.	.
1r	2G	1b	.	.	2r
.	2G	.	2g	.	[2gg
=63	=63	=63	=63	=63	=63
1r	2.c	2cc	2e	0ee	4gg]
.	.	.	.	.	4ff
.	.	2g	2c	.	4ee
.	4B	.	.	.	4dd
2r	4A	1a	2.e	.	2cc
.	4G	.	.	.	.
[2c	2A	.	.	.	2a
.	.	.	4f	.	.
=64	=64	=64	=64	=64	=64
2c]	1G	2d	2g	0r	0dd
4B	.	1g	2d	.	.
4A	.	.	.	.	.
2B	1r	.	2r	.	.
2B	.	2g	[2g	.	.
=65	=65	=65	=65	=65	=65
1c	1r	2e	2g]	0ee	0cc
.	.	2c	2g	.	.
1C	[1c	[1g	2e	.	.
.	.	.	2c	.	.
=66	=66	=66	=66	=66	=66
0G	2c]	0g]	0d	0dd	1r
.	4B	.	.	.	.
.	4A	.	.	.	.
.	1B	.	.	.	2.gg
.	.	.	.	.	4ff
=67	=67	=67	=67	=67	=67
1C	2c	2r	1e	0cc	4ee
.	.	.	.	.	4dd
.	2G	1g	.	.	1ee
1r	1A	.	1c	.	.
.	.	2f#	.	.	2a
=68	=68	=68	=68	=68	=68
0G	4G	2g	1r	0b	0dd
.	4A	.	.	.	.
.	4B	2G	.	.	.
.	4c	.	.	.	.
.	2d	2.B	[1g	.	.
.	2G	.	.	.	.
.	.	4c	.	.	.
=69	=69	=69	=69	=69	=69
1D	1A	2.d	2g]	0a	1dd
.	.	.	4f	.	.
.	.	8c	4e	.	.
.	.	8B	.	.	.
1D	[1d	1A	2f#	.	2r
.	.	.	2f#	.	[2dd
=70	=70	=70	=70	=70	=70
1G	1d]	1B	1g	0g	2dd]
.	.	.	.	.	2b
1C	2.c	2r	1e	.	2.cc
.	.	[2g	.	.	.
.	4B	.	.	.	4dd
=71	=71	=71	=71	=71	=71
2r	1A	2g]	1c	1r	2ee
1c	.	2f	.	.	2ff
.	1G	2e	2r	1g	1gg
2B	.	2d	[2g	.	.
=72	=72	=72	=72	=72	=72
2A	2r	2e	2g]	1a	1cc
2A	1c	2c	2f	.	.
1G	.	1g	2e	1b	2r
.	2B	.	2d	.	2gg
=73	=73	=73	=73	=73	=73
2r	2A	2a	2c	1cc	2ff
1c	2c	2g	2e	.	2ee
.	1G	1g	1d	1dd	1gg
2B	.	.	.	.	.
=74	=74	=74	=74	=74	=74
2A	2r	2r	2a	1ee	1cc
2c	1c	2e	2.g	.	.
1G	.	2d	.	1r	1dd
.	.	.	4a	.	.
.	2B	2d	2b	.	.
=75	=75	=75	=75	=75	=75
2r	2A	2.e	2cc	1ee	1cc
1c	2c	.	2c	.	.
.	.	4f	.	.	.
.	1G	1g	1d	1dd	2r
2B	.	.	.	.	2gg
=76	=76	=76	=76	=76	=76
2A	1c	2a	2r	1cc	2ff
2c	.	2g	2e	.	2ee
1G	[1d	2r	2g	1b	[1dd
.	.	[2g	2g	.	.
=77	=77	=77	=77	=77	=77
1r	1d]	2g]	2a	1a	1dd]
.	.	2f	2d	.	.
1C	2G	2e	2.e	[1g	2cc
.	4c	2g	.	.	[2ee
.	4d	.	4f	.	.
=78	=78	=78	=78	=78	=78
1C	4e	1c	2g	1g]	4ee]
.	4f	.	.	.	4dd
.	2e	.	2G	.	1cc
1G	1d	1r	2r	2r	.
.	.	.	[2g	2g	2b
=79	=79	=79	=79	=79	=79
1D	1r	1d	2g]	2a	2a
.	.	.	2f	2b	2dd
2C	2.g	2G	2e	2cc	2ee
2G	.	2B	2d	2dd	[2gg
.	4f	.	.	.	.
=80	=80	=80	=80	=80	=80
0C	4e	2.c	4c	1ee	4gg]
.	4d	.	4d	.	4ff
.	1c	.	4e	.	4ee
.	.	4d	4f	.	4dd
.	.	1e	1g	2r	2cc
.	2c	.	.	2ee	[2gg
=81	=81	=81	=81	=81	=81
2r	2B	2r	1G	2dd	4gg]
.	.	.	.	.	4ff
2C	2G	1g	.	2cc	2ee
2D	1d	.	2r	2b	1dd
2D	.	2f	2d	2a	.
=82	=82	=82	=82	=82	=82
2E	[0G	2e	2B	[0g	2r
2.C	.	2g	2.e	.	2.gg
.	.	2c	.	.	.
4D	.	.	4d	.	4ff
4E	.	[2g	2c	.	2ee
4F	.	.	.	.	.
=83	=83	=83	=83	=83	=83
2G	0G]	4g]	4B	0g]	2dd
.	.	4f	4G	.	.
2C	.	2e	2.g	.	1cc
1G	.	1d	.	.	.
.	.	.	4f	.	.
.	.	.	2d	.	2b
=84	=84	=84	=84	=84	=84
[0C	[0G	[0c	[0e	[0g	[0cc
=85	=85	=85	=85	=85	=85
0C]	0G]	0c]	0e]	0g]	0cc]
==	==	==	==	==	==
*-	*-	*-	*-	*-	*-
!!!CDT: 1525/^1526/-1594/2/2
!!!OCY: Italia
!!!AGN: Mass (Tenor)
!!!AST: renaissance, vocal
!!!ASW: Antiphon
!!!PWK: Masses, Book 3
!!!RNB: Cadence finals: G
!!!YOR: Le Opere Complete, v. 6, p. 216
!!!YOO: Rome, Italy: Fratelli Scalera
!!!END: 1992//
!!!EED: John Miller
!!!YEC: Copyright 2000, John Miller
!!!YEN: United States of America
!!!YEM: Rights to all derivative electronic formats reserved.
!!!YEM: Refer to licensing agreement for further details.
!!!YEM: This file must be accompanied by the licensing agreement.
!!!YEM: A copy of the licensing agreement may be found at http://www.music-cog.ohio-state.edu/HumdrumDatabases/Palestrina/license.txt
!!!EMD: converted to Humdrum by Bret Aarden
